X: 29117
T: Nellie Your Favour I'm Afraid I'll Not Gain
R: hornpipe
M: 4/4
K: Adorian
AG|:EAAG A2BG|ABde g2ag|egde BedB|G3A ABAG|
EAAG A2BG|ABde g2ag|egde BedB|BAAG A2:|
Bc|dBde g3 a|gede g2ag|egde BedB|G3A ABAG|
EAAG A2BG|ABde g2ag|egde BedB|BAAG A2:|

